Papirus/22x22/mimetypes/text-x-python.svg

<?xml version="1.0" encoding="UTF-8" standalone="no"?>
<svg xmlns="http://www.w3.org/2000/svg" height="22" width="22" version="1">
 <g transform="translate(-1,-1)">
  <path d="m5 2c-0.554 0-1 0.446-1 1v18c0 0.554 0.446 1 1 1h14c0.554 0 1-0.446 1-1v-13l-5.5-0.5-0.5-5.5z" fill="#ccc"/>
  <path opacity=".2" d="m5 2c-0.554 0-1 0.446-1 1v0.5c0-0.554 0.446-1 1-1h9l5.5 5.5h0.5l-6-6z" fill="#fff"/>
  <path d="m14 2v5c0 0.5523 0.44772 1 1 1h5l-6-6z" fill="#ebebeb"/>
  <g transform="translate(0 -.5)">
   <path opacity=".3" style="color:#000000" d="m14.5 13v1.25c0 0.6925-0.5575 1.25-1.25 1.25h-2.5s-1.25 0-1.25 1.25v2.1875c0 0.8655 0.9755 1.5625 2.1875 1.5625h0.625c1.212 0 2.1875-0.697 2.1875-1.5625v-0.938h0.938c0.865 0 1.562-0.976 1.562-2.188v-0.625c0-1.211-0.697-2.187-1.562-2.187h-0.938zm-1 5.5a0.5 0.5 0 0 1 0.5 0.5 0.5 0.5 0 0 1 -0.5 0.5 0.5 0.5 0 0 1 -0.5 -0.5 0.5 0.5 0 0 1 0.5 -0.5z"/>
   <path opacity=".5" style="color:#000000" d="m11.688 10.5c-1.212 0-2.188 0.697-2.188 1.562v0.938h-0.9375c-0.8655 0-1.5625 0.976-1.5625 2.188v0.625c0 1.211 0.697 2.187 1.5625 2.187h0.9375v-1.25c0-0.6925 0.5575-1.25 1.25-1.25h2.5s1.25 0 1.25-1.25v-2.1875c0-0.865-0.976-1.562-2.188-1.562h-0.625zm-1.188 1a0.5 0.5 0 0 1 0.5 0.5 0.5 0.5 0 0 1 -0.5 0.5 0.5 0.5 0 0 1 -0.5 -0.5 0.5 0.5 0 0 1 0.5 -0.5z"/>
  </g>
 </g>
</svg>

<svg xmlns="http://www.w3.org/2000/svg" width="22" height="22" version="1">
 <g transform="translate(-1,-1)">
  <path style="opacity:0.2" d="m 5,2.5 c -0.554,0 -1,0.446 -1,1 v 18 c 0,0.554 0.446,1 1,1 h 14 c 0.554,0 1,-0.446 1,-1 V 8.5 L 14.5,8 14,2.5 Z"/>
  <path style="fill:#cccccc" d="M 5,2 C 4.446,2 4,2.446 4,3 v 18 c 0,0.554 0.446,1 1,1 h 14 c 0.554,0 1,-0.446 1,-1 V 8 L 14.5,7.5 14,2 Z"/>
  <path style="opacity:0.2;fill:#ffffff" d="M 5,2 C 4.446,2 4,2.446 4,3 v 0.5 c 0,-0.554 0.446,-1 1,-1 h 9 L 19.5,8 H 20 L 14,2 Z"/>
  <path style="opacity:0.2" d="m 14,2.5 v 5 c 0,0.5523 0.44772,1 1,1 h 5 z"/>
  <path style="fill:#ebebeb" d="m 14,2 v 5 c 0,0.5523 0.44772,1 1,1 h 5 z"/>
  <g transform="translate(0,-0.5)">
   <path style="opacity:0.3" d="m 14.5,13 v 1.25 c 0,0.6925 -0.5575,1.25 -1.25,1.25 h -2.5 c 0,0 -1.25,0 -1.25,1.25 v 2.1875 c 0,0.8655 0.9755,1.5625 2.1875,1.5625 h 0.625 c 1.212,0 2.1875,-0.697 2.1875,-1.5625 v -0.938 h 0.938 c 0.865,0 1.562,-0.976 1.562,-2.188 v -0.625 c 0,-1.211 -0.697,-2.187 -1.562,-2.187 H 14.5 Z m -1,5.5 A 0.5,0.5 0 0 1 14,19 0.5,0.5 0 0 1 13.5,19.5 0.5,0.5 0 0 1 13,19 0.5,0.5 0 0 1 13.5,18.5 Z"/>
   <path style="opacity:0.5" d="M 11.688,10.5 C 10.476,10.5 9.5,11.197 9.5,12.062 V 13 H 8.5625 C 7.697,13 7,13.976 7,15.188 v 0.625 C 7,17.024 7.697,18 8.5625,18 H 9.5 v -1.25 c 0,-0.6925 0.5575,-1.25 1.25,-1.25 h 2.5 c 0,0 1.25,0 1.25,-1.25 v -2.1875 c 0,-0.865 -0.976,-1.562 -2.188,-1.562 h -0.625 z m -1.188,1 A 0.5,0.5 0 0 1 11,12 0.5,0.5 0 0 1 10.5,12.5 0.5,0.5 0 0 1 10,12 0.5,0.5 0 0 1 10.5,11.5 Z"/>
  </g>
 </g>
</svg>
